!!!COM: Fanny (Mendelssohn) Hensel
!!!CNT: Deutsch
!!!TXO: Deutsch
!!!OTL: "Die Mainacht"
!!!LYR: Ho2lty, Ludwig
!!!OPR: 
!!!OPS: Op. 9
!!!ONM: No. 6
!!!ENC: Emily Thomas
!!!YOR: Hensel: Ausgewa2hlte Lieder fu2r Singstimme und Klavier
!!!YOR: Breitkopf & Hartel, 1994
!!!ODT: 1838/
!!NB: Vocal melody and text encoded.
**kern	**silbe
=1-	=1
*clefG2	*
*k[b-e-a-]	*
*M6/4	*
*MM[Andante]	*
1.r	.
=2	=2
1.r	.
=3	=3
1.r	.
=4	=4
4r	.
{4g	{Wenn
4a-	der
4.cc	sil-
8an	-ber-
4b-	-ne
=5	=5
2ee-	Mond
4r	.
4.e-	durch
8f	die
4g	Ge-
=6	=6
2b-	-stra2u-
4a-	-che
2f}	blinkt}
4r	.
=7	=7
{2g	{und
4g	sein
4.g	schlum-
8f	-merns-
4e-	-des
=8	=8
2.d	Licht
4.c	u2-
8bn	-ber
4c	den
=9	=9
*M3/4	*
2ee-	Ra-
4dd	-sen
=10	=10
*M6/4	*
2cc}	streut}
4r	.
4r	.
{4b-	{und
4cc	die
=11	=11
[2.dd-	Nach-
4dd-]	|
8cc	-ti-
8b-	|
8a-	-gall
8g	|
=12	=12
2b-	flo2-
4a-}	-tet,}
{4g-	{wandl'
4f	|
4en	ich
=13	=13
2f	trau-
8a-	|
8g	|
2g	-rig
8b-	von
8a-	|
=14	=14
2a-	Busch
8cc	zu
8bn	|
4bn}	Busch,}
{4ff	{wandl'
8ee-	ich
8dd	|
=15	=15
4ee-	trau-
4gg	|
4ee-	|
4cc	|
4g	|
4e-	|
=16	=16
4c	|
4d	-rig
4e-	von
2B-	Busch
8a-	zu
8g	|
=17	=17
4f	Busch.
4e-}	|}
4r	.
2r	.
4r	.
==	==
*-	*-
